X:484
T:Rose Tree, The
C:Joe Buchanan's Scottish Tome - Page 166.3
I:166 3
Z:Carl Allison
R:Polka
L:1/8
M:4/4
K:D
fe | "D"d2 B2 A2 F2 | "D"A4 A2 "A7"Bc | "A7"d4 e2 de | "E7"f2 e2 e2 "A7"fe |
"D"d2 B2 A2 F2 | "D7"A4 "A7"Bc | "D"d4 e2 "A7"de | "D"f2 d2 d2 :|
e2 | "D"f2 e2 f2 g2 | "D7"a4 g2 "G"f2 | "B"e2 b2 b2 a2 | "E7"b2 e2 e2 "A7"fe |
"D"d2 B2 A2 F2 | "D7"A4 A2 "A7"Bc | "D"d4 e2 "A7"de | "D"f2 d2 d2 :|

